src/assets/icons/backward2.svg

<?xml version="1.0" encoding="iso-8859-1"?>
<!-- Generator: Adobe Illustrator 19.0.0, SVG Export Plug-In . SVG Version: 6.00 Build 0)  -->
<svg version="1.1" id="Capa_1" xmlns="http://www.w3.org/2000/svg" xmlns:xlink="http://www.w3.org/1999/xlink" x="0px" y="0px"
	 viewBox="0 0 512 512" style="enable-background:new 0 0 512 512;" xml:space="preserve">
<g>
	<g>
		<path d="M490.667,45.729C490.667,20.521,470.01,0,444.615,0c-6.896,0-13.625,1.563-19.99,4.646l-0.031,0.021
			c-69.958,34.104-169.188,91.271-256.729,141.708c-45.729,26.354-88.917,51.229-121.74,69.229
			c-15.521,8.5-24.792,23.604-24.792,40.396s9.271,31.896,24.792,40.396c32.896,18.021,76.188,42.958,122.021,69.375
			c87.448,50.375,186.563,107.479,256.438,141.542c6.365,3.104,13.104,4.688,20.031,4.688c25.396,0,46.052-20.521,46.052-45.75
			l-0.021-210.271L490.667,45.729z"/>
	</g>
</g>
<g>
</g>
<g>
</g>
<g>
</g>
<g>
</g>
<g>
</g>
<g>
</g>
<g>
</g>
<g>
</g>
<g>
</g>
<g>
</g>
<g>
</g>
<g>
</g>
<g>
</g>
<g>
</g>
<g>
</g>
</svg>

<svg width="512" height="512" viewBox="0 0 512 512" fill="none" xmlns="http://www.w3.org/2000/svg">
<g clip-path="url(#clip0)">
<path d="M490.667 45.729C490.667 20.521 470.01 0 444.615 0C437.719 0 430.99 1.563 424.625 4.646L424.594 4.667C354.636 38.771 255.406 95.938 167.865 146.375C122.136 172.729 78.948 197.604 46.125 215.604C30.604 224.104 21.333 239.208 21.333 256C21.333 272.792 30.604 287.896 46.125 296.396C79.021 314.417 122.313 339.354 168.146 365.771C255.594 416.146 354.709 473.25 424.584 507.313C430.949 510.417 437.688 512.001 444.615 512.001C470.011 512.001 490.667 491.48 490.667 466.251L490.646 255.98L490.667 45.729Z" fill="#204051"/>
</g>
<defs>
<clipPath id="clip0">
<rect width="512" height="512" fill="white"/>
</clipPath>
</defs>
</svg>
